Simply-White-Circles/scalable/panel/weather-none-available.svg

<svg xmlns="http://www.w3.org/2000/svg" width="24" height="24"><path d="M12 2.02a6 6 0 0 0-6 6 6 6 0 0 0 .004.128A4 4 0 0 0 3 12.02a4 4 0 0 0 4 4h2v-1H7a3 3 0 0 1-3-3 3 3 0 0 1 3-3 3 3 0 0 1 .107.005A5 5 0 0 1 7 8.02a5 5 0 0 1 5-5 5 5 0 0 1 4.92 4.11A4 4 0 0 1 20 11.02a4 4 0 0 1-4 4v1a5 5 0 0 0 5-5 5 5 0 0 0-3.242-4.676A6 6 0 0 0 12 2.02zm0 8.255a3.429 3.429 0 0 0-3.428 3.428h1.713A1.72 1.72 0 0 1 12 11.988a1.714 1.714 0 0 1 1.715 1.715c0 .472-.189.9-.506 1.21l-1.063 1.08a3.454 3.454 0 0 0-1.003 2.425v.428h1.714c0-1.286.385-1.8 1.002-2.426l.772-.787a2.73 2.73 0 0 0 .797-1.93A3.429 3.429 0 0 0 12 10.275zM11.984 20a.982.982 0 0 0-.984.984v.032c0 .545.439.984.984.984h.032a.982.982 0 0 0 .984-.984v-.032a.982.982 0 0 0-.984-.984h-.032z" fill="#e6e6e6"/></svg>

<?xml version="1.0" encoding="UTF-8" standalone="no"?>
<svg
   xmlns:dc="http://purl.org/dc/elements/1.1/"
   xmlns:cc="http://creativecommons.org/ns#"
   xmlns:rdf="http://www.w3.org/1999/02/22-rdf-syntax-ns#"
   xmlns:svg="http://www.w3.org/2000/svg"
   xmlns="http://www.w3.org/2000/svg"
   xmlns:sodipodi="http://sodipodi.sourceforge.net/DTD/sodipodi-0.dtd"
   xmlns:inkscape="http://www.inkscape.org/namespaces/inkscape"
   width="24"
   height="24"
   version="1.1"
   id="svg4"
   sodipodi:docname="weather-none-available.svg"
   inkscape:version="0.92.4 (5da689c313, 2019-01-14)">
  <metadata
     id="metadata10">
    <rdf:RDF>
      <cc:Work
         rdf:about="">
        <dc:format>image/svg+xml</dc:format>
        <dc:type
           rdf:resource="http://purl.org/dc/dcmitype/StillImage" />
        <dc:title></dc:title>
      </cc:Work>
    </rdf:RDF>
  </metadata>
  <defs
     id="defs8" />
  <sodipodi:namedview
     pagecolor="#ffffff"
     bordercolor="#666666"
     borderopacity="1"
     objecttolerance="10"
     gridtolerance="10"
     guidetolerance="10"
     inkscape:pageopacity="0"
     inkscape:pageshadow="2"
     inkscape:window-width="1087"
     inkscape:window-height="480"
     id="namedview6"
     showgrid="false"
     inkscape:zoom="9.8333333"
     inkscape:cx="1.0677966"
     inkscape:cy="12"
     inkscape:window-x="0"
     inkscape:window-y="25"
     inkscape:window-maximized="0"
     inkscape:current-layer="svg4" />
  <path
     d="M 12,2.02 A 6,6 0 0 0 6,8.02 6,6 0 0 0 6.004,8.148 4,4 0 0 0 3,12.02 a 4,4 0 0 0 4,4 h 2 v -1 H 7 a 3,3 0 0 1 -3,-3 3,3 0 0 1 3,-3 A 3,3 0 0 1 7.107,9.025 5,5 0 0 1 7,8.02 a 5,5 0 0 1 5,-5 5,5 0 0 1 4.92,4.11 4,4 0 0 1 3.08,3.89 4,4 0 0 1 -4,4 v 1 a 5,5 0 0 0 5,-5 A 5,5 0 0 0 17.758,6.344 6,6 0 0 0 12,2.02 Z m 0,8.255 a 3.429,3.429 0 0 0 -3.428,3.428 h 1.713 A 1.72,1.72 0 0 1 12,11.988 a 1.714,1.714 0 0 1 1.715,1.715 c 0,0.472 -0.189,0.9 -0.506,1.21 l -1.063,1.08 a 3.454,3.454 0 0 0 -1.003,2.425 v 0.428 h 1.714 c 0,-1.286 0.385,-1.8 1.002,-2.426 l 0.772,-0.787 A 2.73,2.73 0 0 0 15.428,13.703 3.429,3.429 0 0 0 12,10.275 Z M 11.984,20 A 0.982,0.982 0 0 0 11,20.984 v 0.032 C 11,21.561 11.439,22 11.984,22 h 0.032 A 0.982,0.982 0 0 0 13,21.016 V 20.984 A 0.982,0.982 0 0 0 12.016,20 Z"
     id="path2"
     inkscape:connector-curvature="0"
     style="fill:#e6e6e6" />
</svg>
